packages/astro-components-stencil/src/icons/store-mall-directory.svg

<svg xmlns="http://www.w3.org/2000/svg" viewBox="0 0 24 24"><g xmlns="http://www.w3.org/2000/svg" id="store-mall-directory" fill-rule="nonzero">
            <path d="M20.16 7.8c-.09-.46-.5-.8-.98-.8H4.82c-.48 0-.89.34-.98.8L3 12v1c0 .55.45 1 1 1v5c0 .55.45 1 1 1h8c.55 0 1-.45 1-1v-5h4v5c0 .55.45 1 1 1s1-.45 1-1v-5c.55 0 1-.45 1-1v-1l-.84-4.2zM12 18H6v-4h6v4zM5 6h14c.55 0 1-.45 1-1s-.45-1-1-1H5c-.55 0-1 .45-1 1s.45 1 1 1z"/>
        </g></svg>

<svg width="24" height="24" viewBox="0 0 24 24" fill="none" xmlns="http://www.w3.org/2000/svg">
<path fill-rule="evenodd" clip-rule="evenodd" d="M19 6H5C4.45 6 4 5.55 4 5C4 4.45 4.45 4 5 4H19C19.55 4 20 4.45 20 5C20 5.55 19.55 6 19 6ZM20.16 7.8C20.07 7.34 19.66 7 19.18 7H4.82C4.34 7 3.93 7.34 3.84 7.8L3 12V13C3 13.55 3.45 14 4 14V19C4 19.55 4.45 20 5 20H13C13.55 20 14 19.55 14 19V14H18V19C18 19.55 18.45 20 19 20C19.55 20 20 19.55 20 19V14C20.55 14 21 13.55 21 13V12L20.16 7.8ZM12 18H6V14H12V18Z" fill="black"/>
</svg>
